assets/overlay-bundle.svg

<svg fill="none" height="521" viewBox="0 0 812 521" width="812" xmlns="http://www.w3.org/2000/svg" xmlns:xlink="http://www.w3.org/1999/xlink"><filter id="a" color-interpolation-filters="sRGB" filterUnits="userSpaceOnUse" height="510.5" width="814" x="-1" y="11"><feFlood flood-opacity="0" result="BackgroundImageFix"/><feGaussianBlur in="BackgroundImage" stdDeviation="1"/><feComposite in2="SourceAlpha" operator="in" result="effect1_backgroundBlur"/><feBlend in="SourceGraphic" in2="effect1_backgroundBlur" mode="normal" result="shape"/></filter><g filter="url(#a)"><path clip-rule="evenodd" d="m811 13h-810v502.5c0 2.209 1.79084 4 3.99998 4h802.00002c2.209 0 4-1.791 4-4zm-121.5 373c8.008 0 14.5-6.492 14.5-14.5s-6.492-14.5-14.5-14.5-14.5 6.492-14.5 14.5 6.492 14.5 14.5 14.5zm-454.5-26c0-2.209 1.791-4 4-4h114c2.209 0 4 1.791 4 4v22c0 2.209-1.791 4-4 4h-114c-2.209 0-4-1.791-4-4zm479-2c-2.209 0-4 1.791-4 4v19c0 2.209 1.791 4 4 4h46c2.209 0 4-1.791 4-4v-19c0-2.209-1.791-4-4-4z" fill="#345255" fill-opacity=".2" fill-rule="evenodd"/></g></svg>

<svg width="812" height="521" viewBox="0 0 812 521" fill="none" xmlns="http://www.w3.org/2000/svg">
<path fill-rule="evenodd" clip-rule="evenodd" d="M811 13H1V515.5C1 517.709 2.79084 519.5 4.99998 519.5H807C809.209 519.5 811 517.709 811 515.5V13ZM689.5 386C697.508 386 704 379.508 704 371.5C704 363.492 697.508 357 689.5 357C681.492 357 675 363.492 675 371.5C675 379.508 681.492 386 689.5 386ZM235 360C235 357.791 236.791 356 239 356H353C355.209 356 357 357.791 357 360V382C357 384.209 355.209 386 353 386H239C236.791 386 235 384.209 235 382V360ZM714 358C711.791 358 710 359.791 710 362V381C710 383.209 711.791 385 714 385H760C762.209 385 764 383.209 764 381V362C764 359.791 762.209 358 760 358H714Z" fill="#345255" fill-opacity="0.2"/>
</svg>
